X:1
T:Title
%%score { ( 1 4 5 ) | ( 2 3 ) }
L:1/8
Q:1/4=100
M:3/4
K:Bb
V:1 treble nm="Grand Piano"
V:4 treble 
V:5 treble 
V:2 bass 
V:3 bass 
V:1
 [Fd]2 [Ge]2 [Fd]2 | [Ec]2 [EG]4 | [Ec]2 [Fd]2 [Ec]2 | [DB]2 [DF]4 | [DF][DG] [DA]c [DB]G | %5
w: I.~H.~Meredith * *|||||
 [EB]2 [EA]4 | [EG]2 [EF]2 [Ge]2 | [Fd]6 | [Fd]2 [Ge]2 [Fd]2 | [=Ec]2 [EG]4 | [Ec]2 [Fd]2 [Ec]2 | %11
w: ||||||
 [DB]2 [DF]4 | [EG][FA] [Gc]B [FA]G | [DF]2 [Fd]4 | [=Ed]2 [_EF]2 [Ec]2 | [DB]6 | DF c2 B2 | %17
w: ||||||
 D2 [df]2 [df]2 | DF A2 G2 | E2 [ef]2 [ef]2 | EF d2 c2 | z2 E2 Gc | c^F Fc c=F | F6 | DF c2 B2 | %25
w: ||||||||
 D2 [df]2 [df]2 | z2 e4 | d4 z2 | GA [Gc][GB] [FA][EG] | [DF]B ed cB | [Fd]4 [Ec]2 | [DB]6 |] %32
w: |||||||
V:2
 B,,F, B,2 B,,2 | E,,G, C2 G,2 | F,,F, A,2 F,2 | B,,F, B,2 F,2 | B,,F, z D z D | C,F, C2 F,2 | %6
 F,,F, A,2 F,2 | B,,F, B,2 F,2 | E,,G, =B,2 G,2 | C,G, C2 G,2 | F,,F, A,2 F,2 | B,,F, B,2 F,2 | %12
 z2[K:treble] E2[K:bass] B,2 | B,,F, B,2 F,2 | [C,B,]2 [F,A,]2 [F,A,]2 | [B,,F,]6 | %16
 B,,2 [F,B,D]2 [F,B,D]2 | B,,2 [F,B,D]2 [F,B,D]2 | B,,2 [F,B,D]2 [F,B,D]2 | C,2 [F,A,E]2 [F,A,E]2 | %20
 F,,2 [F,A,E]2 [F,A,E]2 | F,,2 [F,A,]2 [F,A,E]2 | F,,2 [^F,B,E]2 [=F,A,D]2 | B,,2 [F,B,]2 [F,B,]2 | %24
 B,,2 [F,B,D]2 [F,B,D]2 | B,,2 [F,B,D]2 [F,B,D]2 | G,,2[K:treble] [G,=B,F]2 [G,B,]2 | %27
 C,2 [E,G,]2 [E,G,C]2 | .E2 z2 z2 | z[K:treble] D GF ED | F,,F, G,2 [F,A,]2 | [B,,F,B,]2 B,,,4 |] %32
V:3
 x6 | x6 | x6 | x6 | z2 B,2 F,2 | x6 | x6 | x6 | x6 | x6 | x6 | x6 | %12
 E,B,[K:treble] z G[K:bass] z E | x6 | x6 | x6 | x6 | x6 | x6 | x6 | x6 | x6 | x6 | x6 | x6 | x6 | %26
 x2[K:treble] x4 | x6 | [E,B,]-[E,B,F] [E,B,]2 [E,B,]2 | [B,,B,]2[K:treble] z2 z2 | x6 | x6 |] %32
V:4
 x6 | x6 | x6 | x6 | x6 | x6 | x6 | x6 | x6 | x6 | x6 | x6 | x6 | x6 | x6 | x6 | x6 | x6 | x6 | %19
 x6 | x6 | G4 z2 | x6 | z2 D2 D2 | x6 | x6 | ^FG z2 z d | E2- [CE-]2 [Ec]2 | x6 | x6 | x6 | x6 |] %32
V:5
 x6 | x6 | x6 | x6 | x6 | x6 | x6 | x6 | x6 | x6 | x6 | x6 | x6 | x6 | x6 | x6 | x6 | x6 | x6 | %19
 x6 | x6 | x6 | x6 | x6 | x6 | x6 | z2 z2 =F2 | x6 | x6 | x6 | x6 | x6 |] %32

